packages/core/src/svgs/qnt.svg

<svg width="24" height="24" viewBox="0 0 24 24" fill="none" xmlns="http://www.w3.org/2000/svg">
<g clip-path="url(#clip0_31_16693)">
<path d="M0 0H24V24H0V0Z" fill="#F0F3FA"/>
<path d="M9.47134 5.14284C9.07686 5.28338 8.68799 5.43921 8.30563 5.60998C8.27991 5.63141 8.60563 6.05998 9.0342 6.55284C9.46277 7.04998 10.2985 8.03569 10.8985 8.74712C11.2582 9.20375 11.6461 9.63745 12.0599 10.0457C12.1585 10.0457 14.5542 8.58855 14.5542 8.52427C14.5542 8.41284 13.1056 6.65569 12.3985 5.90998C11.5285 4.99712 11.1342 4.70141 10.8085 4.71427C10.6885 4.71855 10.0885 4.91141 9.47134 5.14284ZM15.4713 6.27855C15.4542 6.31284 15.3599 6.60855 15.2613 6.93855C15.1671 7.26427 14.9828 7.7657 14.8585 8.04855C14.7299 8.32712 14.6613 8.57998 14.6999 8.60569L16.0242 9.4457L17.2756 10.2428L17.3271 11.0014C17.3571 11.4171 17.3999 12.1157 17.4213 12.5528L17.4642 13.35L16.3928 14.2114C15.7199 14.7514 15.2699 15.06 15.1928 15.0343C15.1199 15.0128 14.4985 14.7386 13.8085 14.4257C13.3443 14.2051 12.8726 14.0007 12.3942 13.8128C12.2571 13.7828 12.0685 14.1257 10.9242 16.4528C10.4492 17.3754 10.0103 18.3161 9.60848 19.2728C9.60848 19.4786 9.90848 19.5857 10.7099 19.6757C11.7771 19.7957 12.2099 19.6586 12.7113 19.0457C12.9728 18.7243 14.6228 16.23 15.0985 15.4328C15.3128 15.0771 15.2699 15.0343 15.8228 16.1357C16.3499 17.1986 16.4785 17.3743 16.7228 17.3743C16.9542 17.3743 17.2285 17.1043 17.7942 16.3371C18.1242 15.8957 18.1628 15.7971 18.1628 15.4243C18.1628 14.8243 18.0342 14.2071 17.8113 13.7528C17.7085 13.5343 17.5113 13.3628 17.5242 13.35C17.5371 13.3371 17.8671 13.29 18.1242 13.2643C18.8613 13.1786 18.8956 13.1186 18.8356 12.0771C18.7413 10.4486 18.7156 10.4057 17.8585 10.3114C17.6828 10.3033 17.5094 10.2686 17.3442 10.2086C17.3271 10.1828 17.3656 9.96427 17.4299 9.72427C17.5346 9.27976 17.5349 8.81704 17.4308 8.3724C17.3267 7.92776 17.121 7.51326 16.8299 7.16141C16.6071 6.88712 15.7156 6.21855 15.5699 6.21855C15.5499 6.22018 15.5306 6.22645 15.5135 6.23687C15.4964 6.24729 15.482 6.26156 15.4713 6.27855ZM8.19848 10.3371C5.5542 10.5214 5.4042 10.5428 5.26706 10.7057C5.12991 10.8643 5.12134 10.9714 5.16849 11.9057C5.23706 13.3328 5.21134 13.4743 5.45563 13.6371C5.57134 13.7143 6.02991 13.7143 8.11277 13.7143C10.2642 13.7143 12.1199 13.7443 12.2271 13.6371C12.2656 13.5943 12.0642 10.6371 11.9956 10.3028C11.9528 10.0757 11.9271 10.0757 8.19848 10.3371Z" fill="black"/>
</g>
<defs>
<clipPath id="clip0_31_16693">
<rect width="24" height="24" fill="white"/>
</clipPath>
</defs>
</svg>

<svg xmlns="http://www.w3.org/2000/svg" width="24" height="24" fill="none" viewBox="0 0 24 24"><g clip-path="url(#a)"><path fill="#F0F3FA" d="M0 0h24v24H0z"/><path fill="#000" d="M9.471 5.143q-.591.21-1.165.467c-.026.021.3.45.728.943.429.497 1.265 1.483 1.864 2.194q.54.685 1.162 1.299c.098 0 2.494-1.457 2.494-1.522 0-.111-1.448-1.868-2.155-2.614-.87-.913-1.265-1.209-1.59-1.196-.12.005-.72.197-1.338.429m6 1.136c-.017.034-.111.33-.21.66-.094.325-.278.827-.402 1.11-.13.278-.198.531-.16.557l1.325.84 1.252.797.051.758c.03.416.073 1.115.094 1.552l.043.797-1.071.861c-.673.54-1.123.849-1.2.823a37 37 0 0 1-1.384-.608q-.697-.33-1.415-.613c-.137-.03-.325.313-1.47 2.64a40 40 0 0 0-1.316 2.82c0 .206.3.313 1.102.403 1.067.12 1.5-.017 2.001-.63.262-.322 1.912-2.816 2.387-3.613.215-.356.172-.399.725.703.527 1.063.656 1.238.9 1.238.231 0 .506-.27 1.071-1.037.33-.441.369-.54.369-.913 0-.6-.129-1.217-.352-1.671-.102-.219-.3-.39-.287-.403s.343-.06.6-.086c.737-.085.772-.145.712-1.187-.095-1.628-.12-1.671-.977-1.766a1.7 1.7 0 0 1-.515-.102c-.017-.026.022-.245.086-.485a2.96 2.96 0 0 0-.6-2.563c-.223-.274-1.114-.942-1.26-.942a.13.13 0 0 0-.099.06m-7.273 4.058c-2.644.184-2.794.206-2.93.369-.138.158-.147.265-.1 1.2.07 1.427.043 1.568.288 1.731.115.077.574.077 2.657.077 2.151 0 4.007.03 4.114-.077.039-.043-.163-3-.231-3.334-.043-.227-.069-.227-3.798.034"/></g><defs><clipPath id="a"><path fill="#fff" d="M0 0h24v24H0z"/></clipPath></defs></svg>
